src/features/landing/assets/functions-logo.svg

<svg width="48" height="48" viewBox="0 0 48 48" fill="none" xmlns="http://www.w3.org/2000/svg">
<path d="M24.0003 0L3.21582 12.0009V35.9991L24.0003 48L44.7848 35.9991V12.0009L24.0003 0ZM10.9074 29.4288V16.4385L22.1571 9.94519L25.8215 12.0595L14.5681 18.5529V31.5432L10.9074 29.4288ZM25.8472 38.0548L22.1828 35.9405L33.4361 29.4471V16.4568L37.0969 18.5712V31.5615L25.8472 38.0548Z" fill="url(#paint0_linear_3965_29965)"/>
<path d="M29.6394 27.2558V20.7442L23.9999 17.4902L18.3604 20.7442V27.2558L23.9999 30.5098L29.6394 27.2558Z" fill="#0C162C"/>
<defs>
<linearGradient id="paint0_linear_3965_29965" x1="34.3926" y1="5.99863" x2="13.6081" y2="42.0014" gradientUnits="userSpaceOnUse">
<stop stop-color="#7790E2"/>
<stop offset="1" stop-color="#486DDC"/>
</linearGradient>
</defs>
</svg>

<svg xmlns="http://www.w3.org/2000/svg" width="48" height="48" fill="none" xmlns:v="https://vecta.io/nano"><path d="M24 0L3.216 12.001v23.998L24 48l20.784-12.001V12.001L24 0zM10.907 29.429v-12.99l11.25-6.493 3.664 2.114-11.253 6.493v12.99l-3.661-2.114zm14.94 8.626l-3.664-2.114 11.253-6.493v-12.99l3.661 2.114v12.99l-11.25 6.493z" fill="url(#A)"/><path d="M29.64 27.256v-6.512L24 17.49l-5.639 3.254v6.512L24 30.51l5.64-3.254z" fill="#0c162c"/><defs><linearGradient id="A" x1="34.392" y1="5.999" x2="13.608" y2="42.001" gradientUnits="userSpaceOnUse"><stop stop-color="#7790e2"/><stop offset="1" stop-color="#486ddc"/></linearGradient></defs></svg>
